src/assets/img/icons/duotone-icons/Devices/Diagnostics.svg

<?xml version="1.0" encoding="UTF-8"?>
<svg width="24px" height="24px" viewBox="0 0 24 24" version="1.1" xmlns="http://www.w3.org/2000/svg" xmlns:xlink="http://www.w3.org/1999/xlink">
    <!-- Generator: Sketch 52.2 (67145) - http://www.bohemiancoding.com/sketch -->
    <title>Stockholm-icons / Devices / Diagnostics</title>
    <desc>Created with Sketch.</desc>
    <g id="Stockholm-icons-/-Devices-/-Diagnostics" stroke="none" stroke-width="1" fill="none" fill-rule="evenodd">
        <rect id="bound" x="0" y="0" width="24" height="24"></rect>
        <rect id="Combined-Shape" fill="#335EEA" opacity="0.3" x="2" y="3" width="20" height="18" rx="2"></rect>
        <path d="M9.9486833,13.3162278 C9.81256925,13.7245699 9.43043041,14 9,14 L5,14 C4.44771525,14 4,13.5522847 4,13 C4,12.4477153 4.44771525,12 5,12 L8.27924078,12 L10.0513167,6.68377223 C10.367686,5.73466443 11.7274983,5.78688777 11.9701425,6.75746437 L13.8145063,14.1349195 L14.6055728,12.5527864 C14.7749648,12.2140024 15.1212279,12 15.5,12 L19,12 C19.5522847,12 20,12.4477153 20,13 C20,13.5522847 19.5522847,14 19,14 L16.118034,14 L14.3944272,17.4472136 C13.9792313,18.2776054 12.7550291,18.143222 12.5298575,17.2425356 L10.8627389,10.5740611 L9.9486833,13.3162278 Z" id="Path-108" fill="#335EEA"></path>
        <circle id="Oval" fill="#335EEA" opacity="0.3" cx="19" cy="6" r="1"></circle>
    </g>
</svg>

<svg width="24" height="24" viewBox="0 0 24 24" xmlns="http://www.w3.org/2000/svg"><g fill="none" fill-rule="evenodd"><path d="M0 0h24v24H0z"/><rect fill="#335EEA" opacity=".3" x="2" y="3" width="20" height="18" rx="2"/><path d="M9.949 13.316A1 1 0 019 14H5a1 1 0 010-2h3.28l1.771-5.316c.317-.95 1.676-.897 1.92.073l1.844 7.378.79-1.582A1 1 0 0115.5 12H19a1 1 0 010 2h-2.882l-1.724 3.447c-.415.83-1.639.696-1.864-.204l-1.667-6.669-.914 2.742z" fill="#335EEA"/><circle fill="#335EEA" opacity=".3" cx="19" cy="6" r="1"/></g></svg>
